assets/icons/HTML.svg

<svg width="32" height="32" viewBox="0 0 32 32" fill="none" xmlns="http://www.w3.org/2000/svg">
<path d="M16.0001 23.4133L21.4662 21.9067L22.2048 13.7733H12.4814L12.2396 11.0667H22.4466L22.7152 8.41333H9.28497L10.0371 16.4267H19.2905L18.9816 19.8667L16.0001 20.6667L13.0186 19.8667L12.8305 17.6533H10.1445L10.534 21.9067L16.0001 23.4133ZM5.34991 4H26.6502L24.7297 25.6L16.0001 28L7.27043 25.6L5.34991 4Z" fill="#e3646e"/>
</svg>

<svg xmlns="http://www.w3.org/2000/svg" width="32" height="32" fill="none"><path fill="#e3646e" d="m16 23.413 5.466-1.506.739-8.134H12.48l-.241-2.706h10.207l.268-2.654H9.285l.752 8.014h9.254l-.31 3.44-2.98.8-2.982-.8-.188-2.214h-2.686l.389 4.254zM5.35 4h21.3l-1.92 21.6L16 28l-8.73-2.4z"/></svg>
